images/Vector.svg

<svg width="177" height="117" viewBox="0 0 177 117" fill="none" xmlns="http://www.w3.org/2000/svg">
<path opacity="0.3" d="M0.999878 71.9216L56.3603 114.948C57.5542 115.876 59.3063 115.195 59.5594 113.704L67.9933 64.0248C68.2698 62.3958 70.2903 61.7858 71.4221 62.9895L94.664 87.7085C95.8383 88.9575 97.937 88.2468 98.1107 86.5412L106.556 3.63203C106.765 1.58205 109.562 1.14916 110.381 3.04017L145.785 84.8225C146.572 86.6399 149.238 86.331 149.589 84.3818L154.571 56.663C154.914 54.7526 157.504 54.402 158.343 56.1523L175 90.902" stroke="#FF553E" stroke-width="3"/>
</svg>

<svg xmlns="http://www.w3.org/2000/svg" width="177" height="117" fill="none"><path stroke="#FF553E" stroke-width="3" d="m1 71.922 55.36 43.026c1.194.928 2.946.247 3.2-1.244l8.433-49.68c.277-1.628 2.297-2.238 3.43-1.035l23.241 24.72c1.174 1.248 3.273.538 3.447-1.168l8.445-82.909c.209-2.05 3.006-2.483 3.825-.592l35.404 81.783c.787 1.817 3.453 1.508 3.804-.441l4.982-27.719c.343-1.91 2.933-2.261 3.772-.51L175 90.901" opacity=".3"/></svg>
